X:153
T:Trip to the Lakes. VWMLa.153
%%VWML:Anon2-3049-p93-0
F:http://www.vwml.org/record/Anon2/3049/p93
S:Anon. MS, late 18thC, Vaughan Williams Mem. Library
O:England;Yorkshire
Z:vmp/efdss.Simon Wilson. Reviewed PJH 2008.
M:6/8
L:1/8
Q:3/8=120
K:F
!turn!f>ef cAF|GAB AGF|!turn!f>ef GAB|AFF F2z:|\
|:!turn!fef cAc|!turn!fef dBd|!turn!f>ef cAF|GAB AGF|
!turn!f>ef cAc|fcf dBd|GAB AdB|AFF F2z:|\
|:A,FF B,FF|DFF CFF|
Fdc BAG|AcB AGF|\
A,FF B,FF|DFF CFF|FdB ABG|AFF F2z:|
